X: 724
T: Ahint Da Daeks O' Voe
R: reel
M: 4/4
K: Dmixolydian
ABAF D2AB|cBcG EC C2|ABAF D2 de|1 faea fd d2:|2 faea fdde||
fdfd edBA|d2 fd efg/f/e|d2 fd edBA|faea fdde|
d2fd edBA|d2 fd efg/f/e|d2 fd edBA|faea fddB||

